X:1
T:Three little babes
B:Randolph V,1982, Ozark Folksongs, University of Illinois
S:May Kennedy McCord, Springfield, Mo, Oct 21, 1941
Z:Vance Randolph
F:http://www.folkinfo.org/songs
M:2/4
L:1/16
K:C
c4 |c4 d4 |e8-|e4 |e2d2 | c4 G4 |A8 |z4
w:A wom-an lived* in a far coun-try
c4 |e6 g2 |(e2d2c4) |z4 d4 |e8 |z4
w: And she had chil-**dren three;
e4 |e4 a2a2 |a8 |z4 a2g2 |e4 d4 | e8-|e4
w:She sent 'em a-way to a far off town*
c2d2 |e8-e4 d4 | c4 G4 |HA4 |]
w:For to learn_ their gram-ma-ry
